images/UpgradeGraphics/BCHUpgrades_Icons/26.svg

<svg xmlns="http://www.w3.org/2000/svg" fill="none" viewBox="7.58 0 768.71 596.49">
<g id="Group 115">
<rect id="Rectangle 93" width="296.655" height="296.656" transform="matrix(0.894978 -0.446111 0.894978 0.446111 123.211 199.34)" fill="url(#paint0_linear_153_30)"/>
<rect id="Rectangle 105" width="296.655" height="296.656" transform="matrix(0.894978 -0.446111 0.894978 0.446111 123.211 199.34)" fill="url(#paint1_linear_153_30)"/>
<rect id="Rectangle 104" width="230.605" height="231.164" transform="matrix(0.894978 -0.446111 0.894978 0.446111 181.211 198.874)" fill="url(#paint2_linear_153_30)"/>
<rect id="Rectangle 267" width="230.605" height="231.164" transform="matrix(0.894978 -0.446111 0.894978 0.446111 181.211 151.874)" fill="url(#paint3_linear_153_30)"/>
<rect id="Rectangle 268" width="230.605" height="231.164" transform="matrix(0.894978 -0.446111 0.894978 0.446111 191.211 102.874)" fill="url(#paint4_linear_153_30)"/>
<rect id="Rectangle 94" width="296.655" height="264.683" transform="matrix(0.894978 0.446111 0 1 123.211 199.34)" fill="url(#paint5_linear_153_30)"/>
<g id="Rectangle 101" style="mix-blend-mode:screen">
<rect width="242.464" height="64.5776" transform="matrix(0.894978 0.446111 0 1 135.211 291.19)" fill="white"/>
</g>
<rect id="Rectangle 95" width="296.655" height="264.683" transform="matrix(0.894978 -0.446111 0 1 388.703 331.808)" fill="url(#paint6_linear_153_30)"/>
<g id="Rectangle 102" style="mix-blend-mode:screen">
<rect width="234.643" height="65.3517" transform="matrix(0.894978 -0.446111 0 1 427.211 398.205)" fill="white"/>
</g>
<g id="Rectangle 100" style="mix-blend-mode:screen">
<path d="M140.442 288.486L351.713 399.499L222.981 487.452L7.57789 373.947L140.442 288.486Z" fill="url(#paint7_linear_153_30)"/>
</g>
<g id="Rectangle 103" style="mix-blend-mode:screen">
<path d="M433.118 417.142L632.29 291.864L776.285 360.944L572.669 488.686L433.118 417.142Z" fill="url(#paint8_linear_153_30)"/>
</g>
<g id="TRUE" filter="url(#filter0_d_153_30)">
<path d="M344.288 142.947L314.773 125.907L303.134 132.627L296.275 128.667L327.972 110.367L334.831 114.327L323.191 121.047L352.705 138.087L344.288 142.947ZM368.874 128.752L332.501 107.752L348.245 98.6622C351.501 96.7822 354.844 95.4722 358.274 94.7322C361.669 93.9722 364.994 93.7922 368.25 94.1922C371.507 94.5922 374.503 95.5822 377.24 97.1622C379.942 98.7222 381.639 100.442 382.332 102.322C382.99 104.182 382.661 106.092 381.345 108.052C380.028 110.012 377.742 111.932 374.486 113.812L363.418 120.202L363.47 115.912L377.292 123.892L368.874 128.752ZM391.997 115.402L369.705 113.032L378.695 107.842L401.09 110.152L391.997 115.402ZM364.405 116.452L356.715 116.332L367.315 110.212C369.913 108.712 371.299 107.272 371.472 105.892C371.611 104.492 370.693 103.222 368.718 102.082C366.709 100.922 364.509 100.392 362.119 100.492C359.729 100.592 357.235 101.392 354.637 102.892L344.036 109.012L343.777 104.542L364.405 116.452ZM423.868 97.7216C418.706 100.702 413.233 102.202 407.448 102.222C401.663 102.242 396.103 100.712 390.768 97.6316L370.399 85.8716L378.817 81.0116L398.874 92.5916C402.338 94.5916 405.542 95.6216 408.487 95.6816C411.431 95.7416 414.185 95.0316 416.749 93.5516C419.312 92.0716 420.542 90.4816 420.438 88.7816C420.334 87.0816 418.55 85.2316 415.086 83.2316L395.029 71.6516L403.343 66.8516L423.712 78.6116C429.046 81.6916 431.696 84.9016 431.662 88.2416C431.627 91.5816 429.029 94.7416 423.868 97.7216ZM434.056 66.0391L451.567 55.9291L458.115 59.7091L440.604 69.8191L434.056 66.0391ZM449.645 74.3191L469.442 62.8891L476.197 66.7891L448.034 83.0491L411.661 62.0491L439.149 46.1791L445.904 50.0791L426.782 61.1191L449.645 74.3191Z" fill="white"/>
</g>
</g>
<defs>
<filter id="filter0_d_153_30" x="292.273" y="45.7891" width="188.547" height="112.238" filterUnits="userSpaceOnUse" color-interpolation-filters="sRGB">
<feFlood flood-opacity="0" result="BackgroundImageFix"/>
<feColorMatrix in="SourceAlpha" type="matrix" values="0 0 0 0 0 0 0 0 0 0 0 0 0 0 0 0 0 0 127 0" result="hardAlpha"/>
<feOffset dy="4"/>
<feGaussianBlur stdDeviation="2"/>
<feComposite in2="hardAlpha" operator="out"/>
<feColorMatrix type="matrix" values="0 0 0 0 0 0 0 0 0 0 0 0 0 0 0 0 0 0 0.25 0"/>
<feBlend mode="normal" in2="BackgroundImageFix" result="effect1_dropShadow_153_30"/>
<feBlend mode="normal" in="SourceGraphic" in2="effect1_dropShadow_153_30" result="shape"/>
</filter>
<linearGradient id="paint0_linear_153_30" x1="148.327" y1="0" x2="148.327" y2="296.656" gradientUnits="userSpaceOnUse">
<stop offset="1" stop-color="#13B3D3"/>
</linearGradient>
<linearGradient id="paint1_linear_153_30" x1="148.327" y1="0" x2="148.327" y2="296.656" gradientUnits="userSpaceOnUse">
<stop offset="1" stop-color="#13B3D3"/>
</linearGradient>
<linearGradient id="paint2_linear_153_30" x1="115.302" y1="0" x2="115.302" y2="231.164" gradientUnits="userSpaceOnUse">
<stop stop-color="#29F7F5"/>
<stop offset="1" stop-color="#13B3D3"/>
</linearGradient>
<linearGradient id="paint3_linear_153_30" x1="138.303" y1="230.228" x2="4.18576" y2="79.1683" gradientUnits="userSpaceOnUse">
<stop stop-color="#29F7F5" stop-opacity="0.39"/>
<stop offset="1" stop-color="#13EDB1" stop-opacity="0.3"/>
</linearGradient>
<linearGradient id="paint4_linear_153_30" x1="221.045" y1="-1.35264e-05" x2="-22.877" y2="41.7771" gradientUnits="userSpaceOnUse">
<stop stop-color="#29F7F5" stop-opacity="0.51"/>
<stop offset="1" stop-color="#13EDB1" stop-opacity="0.4"/>
</linearGradient>
<linearGradient id="paint5_linear_153_30" x1="253.244" y1="-1.83552e-05" x2="-20.3892" y2="139.862" gradientUnits="userSpaceOnUse">
<stop stop-color="#13EDB1"/>
<stop offset="1" stop-color="#13B3D3"/>
</linearGradient>
<linearGradient id="paint6_linear_153_30" x1="258.636" y1="99.9605" x2="128.343" y2="245.555" gradientUnits="userSpaceOnUse">
<stop stop-color="#13EDB1"/>
<stop offset="1" stop-color="#13B3D3"/>
</linearGradient>
<linearGradient id="paint7_linear_153_30" x1="120.607" y1="433.663" x2="195.762" y2="319" gradientUnits="userSpaceOnUse">
<stop offset="0.0816505" stop-color="white" stop-opacity="0"/>
<stop offset="0.257274" stop-color="white" stop-opacity="0"/>
<stop offset="0.629114" stop-color="#BBFAE9" stop-opacity="0.286412"/>
<stop offset="1" stop-color="#13EDB1"/>
</linearGradient>
<linearGradient id="paint8_linear_153_30" x1="679.779" y1="421.649" x2="624.386" y2="313.972" gradientUnits="userSpaceOnUse">
<stop offset="0.0816505" stop-color="white" stop-opacity="0"/>
<stop offset="0.257274" stop-color="white" stop-opacity="0"/>
<stop offset="0.629114" stop-color="#BBFAE9" stop-opacity="0.286412"/>
<stop offset="1" stop-color="#13EDB1"/>
</linearGradient>
</defs>
</svg>

<svg xmlns="http://www.w3.org/2000/svg" fill="none" viewBox="7.58 0 768.71 596.49" xmlns:v="https://vecta.io/nano"><g transform="matrix(.894978 -.446111 .894978 .446111 123.211 199.34)"><path fill="url(#A)" d="M0 0h296.655v296.656H0z"/><path fill="url(#A)" d="M0 0h296.655v296.656H0z"/></g><use href="#I" transform="matrix(.894978 -.446111 .894978 .446111 181.211 198.874)" fill="url(#B)"/><use href="#I" transform="matrix(.894978 -.446111 .894978 .446111 181.211 151.874)" fill="url(#C)"/><use href="#I" transform="matrix(.894978 -.446111 .894978 .446111 191.211 102.874)" fill="url(#D)"/><path transform="matrix(.894978 .446111 0 1 123.211 199.34)" fill="url(#E)" d="M0 0h296.655v264.683H0z"/><path fill="#fff" d="M135.211 291.19l217 108.166v64.578l-217-108.166z" style="mix-blend-mode:screen"/><path transform="matrix(.894978 -.446111 0 1 388.703 331.808)" fill="url(#F)" d="M0 0h296.655v264.683H0z"/><path fill="#fff" d="M427.211 398.205l210-104.677v65.352l-210 104.677z" style="mix-blend-mode:screen"/><path d="M140.442 288.486l211.271 111.013-128.732 87.953L7.578 373.947l132.864-85.461z" fill="url(#G)" style="mix-blend-mode:screen"/><path d="M433.118 417.142L632.29 291.864l143.995 69.08-203.616 127.742-139.551-71.544z" fill="url(#H)" style="mix-blend-mode:screen"/><path d="M344.288 142.947l-29.515-17.04-11.639 6.72-6.859-3.96 31.697-18.3 6.859 3.96-11.64 6.72 29.514 17.04-8.417 4.86zm24.586-14.195l-36.373-21 15.744-9.09c3.256-1.88 6.599-3.19 10.029-3.93 3.395-.76 6.72-.94 9.976-.54s6.253 1.39 8.99 2.97c2.702 1.56 4.399 3.28 5.092 5.16.658 1.86.329 3.77-.987 5.73s-3.603 3.88-6.859 5.76l-11.068 6.39.052-4.29 13.822 7.98-8.418 4.86zm23.123-13.35l-22.292-2.37 8.99-5.19 22.395 2.31-9.093 5.25zm-27.592 1.05l-7.69-.12 10.6-6.12c2.598-1.5 3.984-2.94 4.157-4.32.139-1.4-.779-2.67-2.754-3.81-2.009-1.16-4.209-1.69-6.599-1.59s-4.884.9-7.482 2.4l-10.601 6.12-.259-4.47 20.628 11.91zm59.463-18.73c-5.162 2.98-10.635 4.48-16.42 4.5s-11.345-1.51-16.68-4.59l-20.369-11.76 8.418-4.86 20.057 11.58c3.464 2 6.668 3.03 9.613 3.09s5.698-.65 8.262-2.13 3.793-3.07 3.689-4.77-1.888-3.55-5.352-5.55l-20.057-11.58 8.314-4.8 20.369 11.76c5.334 3.08 7.984 6.29 7.95 9.63s-2.633 6.5-7.794 9.48zm10.188-31.682l17.511-10.11 6.548 3.78-17.511 10.11-6.548-3.78zm15.589 8.28l19.797-11.43 6.755 3.9-28.163 16.26-36.373-21 27.488-15.87 6.755 3.9-19.122 11.04 22.863 13.2z" fill="#fff"/><defs><linearGradient id="A" x1="148.327" y1="0" x2="148.327" y2="296.656" href="#J"><stop offset="1" stop-color="#13b3d3"/></linearGradient><linearGradient id="B" x1="115.302" y1="0" x2="115.302" y2="231.164" href="#J"><stop stop-color="#29f7f5"/><stop offset="1" stop-color="#13b3d3"/></linearGradient><linearGradient id="C" x1="138.303" y1="230.228" x2="4.186" y2="79.168" href="#J"><stop stop-color="#29f7f5" stop-opacity=".39"/><stop offset="1" stop-color="#13edb1" stop-opacity=".3"/></linearGradient><linearGradient id="D" x1="221.045" y1="0" x2="-22.877" y2="41.777" href="#J"><stop stop-color="#29f7f5" stop-opacity=".51"/><stop offset="1" stop-color="#13edb1" stop-opacity=".4"/></linearGradient><linearGradient id="E" x1="253.244" y1="0" x2="-20.389" y2="139.862" href="#J"><stop stop-color="#13edb1"/><stop offset="1" stop-color="#13b3d3"/></linearGradient><linearGradient id="F" x1="258.636" y1="99.961" x2="128.343" y2="245.555" href="#J"><stop stop-color="#13edb1"/><stop offset="1" stop-color="#13b3d3"/></linearGradient><linearGradient id="G" x1="120.607" y1="433.663" x2="195.762" y2="319" href="#J"><stop offset=".082" stop-color="#fff" stop-opacity="0"/><stop offset=".257" stop-color="#fff" stop-opacity="0"/><stop offset=".629" stop-color="#bbfae9" stop-opacity=".286"/><stop offset="1" stop-color="#13edb1"/></linearGradient><linearGradient id="H" x1="679.779" y1="421.649" x2="624.386" y2="313.972" href="#J"><stop offset=".082" stop-color="#fff" stop-opacity="0"/><stop offset=".257" stop-color="#fff" stop-opacity="0"/><stop offset=".629" stop-color="#bbfae9" stop-opacity=".286"/><stop offset="1" stop-color="#13edb1"/></linearGradient><path id="I" d="M0 0h230.605v231.164H0z"/><linearGradient id="J" gradientUnits="userSpaceOnUse"/></defs></svg>
